X:162
T:The Crystal Ground
M:3/4
L:1/8
Q:120
C:Trad.
R:Waltz
K:G
D2 | G2 G2 G2 | G2 BA GA | B2 B2 B>c | B4 A2 | B3 c d
2 | d2 c2 B2 | A>B G2 F2 | G4 :|| D2 | GA BA GF | E2
E2 E2 | AB cB AG | G2 F2 D2 | GA BA GF | E2 F2 G2 |
F>E D2 ^C2 | D4 D2 | GA BA GF |E2 E2 E2|AB cB AG|F2 D2 D2|B3
c d2|d2 c2 B2|A>B G2 F2|G4||
